X:173
T:Sixth of April. VWMLa.173
%%VWML:Anon2-3049-p108-0
F:http://www.vwml.org/record/Anon2/3049/p108
S:Anon. MS, late 18thC, Vaughan Williams Mem. Library
O:England;Yorkshire
Z:vmp/efdss.Simon Wilson. Reviewed PJH 2008.
M:6/8
L:1/8
Q:3/8=120
K:G
(d/c/)|BAB G2B|c2c A2e|def gdB|cAA A2d/c/|\
BAB G2B|c2c A2e|dcB AGF|G3 G,2:|
|:f|gab a2d|g2g f2B|A2e d2G|FGA D2f|\
(ga).b (ef).g|(cd).e A2c|!turn!B>AG DGF|G3 G,2:|
T:Cap'n Andersons Favourite. VWMLa.174
R:Jig
S:Anon. MS, late 18thC, Vaughan Williams Mem. Library
O:England;Yorkshire
Z:vmp/efdss.Simon Wilson. Reviewed PJH 2008.
M:6/8
L:1/8
Q:3/8=100
K:C
G|c>dc cGE|ceg g2f|e>fe edc|Bdc BAG|\
c>dc cGE|ceg g2f|efe fdB|c3- c2:|
|:c|ceg gec|cfa afd|ceg gec|BGG G2z|\
cde efg|def fga|gec GAB|c3- c2:|
